src/static/logos/changetip.svg

<?xml version="1.0" encoding="UTF-8" standalone="no"?>
<svg width="256px" height="263px" viewBox="0 0 256 263" version="1.1" xmlns="http://www.w3.org/2000/svg" xmlns:xlink="http://www.w3.org/1999/xlink" preserveAspectRatio="xMidYMid">
    <g>
        <path d="M115.128219,0 C80.3612725,1.4012771 85.569646,9.12763949 79.0872566,34.6026928 C72.6540028,65.1976756 58.9451706,129.504593 58.896035,129.574787 C58.8504091,129.641471 56.9095529,129.325599 55.0143227,129.013237 C44.6291628,127.30402 28.1483809,126.535399 19.4015423,127.356665 C7.11729154,128.511352 0,132.603645 0,138.510446 C0,141.130497 1.35494924,142.977925 4.42009812,144.542894 C6.64320321,145.677751 6.97241172,145.743417 13.3038145,146.199045 C31.4029124,147.501384 46.1481548,151.439356 59.4667099,158.526815 C76.2461661,167.455807 91.3946713,179.671619 109.437614,198.821516 C114.167969,203.842824 120.578409,210.99065 134.926706,227.26085 C147.213765,241.1936 153.422048,247.091627 161.380962,252.376863 C168.629516,257.190748 176.718639,260.606023 184.062306,261.951636 C188.764231,262.813264 197.610394,262.517819 202.071205,261.348392 C209.481555,259.405851 215.294998,256.112291 220.760281,250.764583 C226.278209,245.365283 229.93495,239.146471 231.826671,231.933014 C232.908321,227.808782 233.150243,220.212419 232.331188,216.161189 C230.621094,207.703548 226.722008,200.817896 220.047288,194.49976 C215.794251,190.473799 210.771891,187.265947 201.511936,182.632811 C196.489927,180.119981 193.542844,178.443299 193.648135,178.179721 C193.74066,177.947777 206.701708,157.729836 222.460548,133.245216 C238.219037,108.760245 251.648147,87.7561802 252.292876,86.5663967 C252.937746,85.3781576 253.788634,83.8529886 254.190282,83.1773741 C255.102344,81.6432203 256.008019,78.2164334 255.999946,76.3443671 C255.950811,65.1730376 242.9018,49.5303686 221.945467,35.5302326 C197.374157,19.123856 165.593954,6.41388035 137.909553,1.92639626 C129.528424,0.56797243 122.849492,0.00698427446 115.128184,0.00698427446 L115.128219,0 Z M154.19453,41.5441491 C158.114849,41.5403236 162.030605,41.8314485 164.646725,42.399635 C185.558485,46.9411682 200.98952,62.1889976 205.875002,83.1435758 C206.793136,87.082847 207.269154,100.613738 206.478247,100.286284 C206.212012,100.176077 203.626627,99.1064685 200.731136,97.9172466 C191.047212,93.9400708 190.184882,93.0591397 188.041517,84.7889164 C186.196616,77.670923 183.584567,73.1553614 178.543606,68.402896 C176.0067,66.0112558 172.905998,63.7845007 172.478518,64.04878 C172.336572,64.1365046 171.87222,65.1396956 171.447548,66.2752544 L170.679804,68.3371947 L172.445597,70.1578442 C174.797648,72.5725781 177.111373,77.2038891 177.139802,79.5462533 C177.180317,82.8799984 175.196489,84.9290582 171.919144,84.931515 C169.29597,84.9332698 168.056735,83.9627013 166.336638,80.5661679 C165.147276,78.2178022 164.69221,77.6593059 163.386326,76.9687401 C161.328703,75.8806323 158.957454,75.8777544 157.353879,76.9577899 C155.831377,77.983285 154.480323,80.4052489 154.480323,82.1236962 C154.480323,84.2807491 155.739318,86.2889912 160.150572,91.1720168 C162.44015,93.706431 164.821963,96.5688605 165.448091,97.5442021 C171.643739,107.199347 165.441949,120.61828 153.361436,123.70224 C152.210961,123.99592 150.457592,124.239643 149.45691,124.239643 L147.636261,124.239643 L146.758839,126.433197 C146.275275,127.639651 145.937011,128.732392 146.013031,128.857056 C146.330321,129.377367 152.478574,129.939934 155.960884,129.767398 C163.505305,129.393547 170.649972,126.633565 176.602048,121.804623 C177.809485,120.825105 178.915036,120.024932 179.058828,120.027845 C179.709172,120.041006 195.464151,126.677997 195.56523,126.981234 C195.746544,127.525165 188.704497,134.479327 185.814972,136.61111 C178.597304,141.934952 170.00068,145.431301 161.10468,146.668465 C156.902884,147.252898 149.352848,147.09791 144.981886,146.328464 C126.046079,142.99507 110.565908,129.809778 104.237945,111.626447 C101.988938,105.165116 101.452132,101.783534 101.452132,94.2317432 C101.452132,88.6881948 101.580853,86.9596746 102.219876,83.9989037 C104.568733,73.1164214 109.082013,64.7707399 116.828942,56.9960842 C124.513048,49.2849539 132.850657,44.7553536 143.699797,42.4091287 C146.350593,41.8357865 150.275544,41.5465182 154.195863,41.5426575 L154.19453,41.5441491 Z M154.040981,58.7086178 C153.549379,58.706863 153.08038,58.72027 152.648057,58.7415036 C137.709782,59.4754841 125.07737,69.0115457 120.435811,83.0569568 C116.423187,95.1990653 118.940404,107.809015 127.323569,117.61648 C129.645051,120.332381 135.577999,125.136684 136.031801,124.668843 C136.16831,124.528178 136.584963,123.62959 136.964044,122.661724 L137.655031,120.895931 L136.273092,119.853975 C133.719585,117.93323 131.205808,114.049306 129.867916,109.960873 C128.908648,107.030005 129.879778,104.508577 132.478244,103.182968 C135.873971,101.450623 138.511394,102.935922 140.89061,107.921044 C142.132828,110.523897 143.796173,112.054752 146.275872,112.878475 C151.094319,114.478857 156.684195,110.741112 156.684195,105.925086 C156.684195,103.67822 155.306819,101.318623 151.353685,96.8216631 C144.754774,89.3144455 143.116804,86.0290288 143.435132,80.9294555 C143.689244,76.8564653 145.216613,73.2965911 147.997723,70.3235364 C150.523609,67.6233598 153.063955,66.3161773 157.528626,65.3990965 L160.654422,64.7519806 L161.674407,62.350022 C162.234482,61.0270109 162.618512,59.8721839 162.529893,59.7835643 C162.009055,59.262727 157.482263,58.7201296 154.040665,58.7087231 L154.040981,58.7086178 Z" fill="#005197"></path>
    </g>
</svg>

<svg width="256" height="263" xmlns="http://www.w3.org/2000/svg" preserveAspectRatio="xMidYMid"><path d="M115.128 0C80.361 1.401 85.57 9.128 79.088 34.603c-6.434 30.595-20.143 94.902-20.192 94.972-.046.066-1.986-.25-3.882-.562-10.385-1.709-26.866-2.478-35.612-1.656C7.117 128.51 0 132.604 0 138.51c0 2.62 1.355 4.468 4.42 6.033 2.223 1.135 2.552 1.2 8.884 1.656 18.099 1.302 32.844 5.24 46.163 12.328 16.78 8.929 31.928 21.145 49.97 40.295 4.731 5.02 11.141 12.169 25.49 28.439 12.287 13.933 18.495 19.83 26.454 25.116 7.249 4.814 15.338 8.229 22.681 9.575 4.702.861 13.548.566 18.01-.604 7.41-1.942 13.223-5.236 18.688-10.583 5.518-5.4 9.175-11.619 11.067-18.832 1.081-4.124 1.323-11.72.504-15.772-1.71-8.457-5.609-15.343-12.284-21.661-4.253-4.026-9.275-7.234-18.535-11.867-5.022-2.513-7.97-4.19-7.864-4.453.093-.232 13.054-20.45 28.813-44.935 15.758-24.485 29.187-45.489 29.832-46.679a130.07 130.07 0 011.897-3.389c.912-1.534 1.818-4.96 1.81-6.833-.05-11.171-13.098-26.814-34.055-40.814-24.57-16.406-56.351-29.116-84.035-33.604C129.528.568 122.85.007 115.128.007V0zm39.067 41.544c3.92-.004 7.836.287 10.452.856 20.911 4.541 36.343 19.789 41.228 40.744.918 3.939 1.394 17.47.603 17.142-.266-.11-2.851-1.18-5.747-2.369-9.684-3.977-10.546-4.858-12.69-13.128-1.844-7.118-4.456-11.634-9.497-16.386-2.537-2.392-5.638-4.618-6.065-4.354-.142.088-.607 1.09-1.031 2.226l-.768 2.062 1.766 1.82c2.352 2.416 4.665 7.047 4.694 9.39.04 3.333-1.944 5.382-5.22 5.385-2.624.001-3.863-.97-5.583-4.366-1.19-2.348-1.645-2.907-2.95-3.597-2.058-1.088-4.43-1.091-6.033-.011-1.523 1.025-2.874 3.447-2.874 5.166 0 2.157 1.26 4.165 5.67 9.048 2.29 2.534 4.672 5.397 5.298 6.372 6.196 9.655-.006 23.074-12.087 26.158-1.15.294-2.903.538-3.904.538h-1.82l-.878 2.193c-.484 1.207-.822 2.3-.746 2.424.317.52 6.466 1.083 9.948.91 7.544-.373 14.689-3.133 20.641-7.962 1.207-.98 2.313-1.78 2.457-1.777.65.013 16.405 6.65 16.506 6.953.182.544-6.86 7.498-9.75 9.63-7.218 5.324-15.814 8.82-24.71 10.057-4.202.585-11.752.43-16.123-.34-18.936-3.333-34.416-16.518-40.744-34.702-2.25-6.46-2.786-9.842-2.786-17.394 0-5.544.129-7.272.768-10.233 2.349-10.883 6.862-19.228 14.609-27.003 7.684-7.711 16.022-12.24 26.87-14.587 2.652-.573 6.577-.862 10.497-.866l-.001.001zm-.154 17.165a26.52 26.52 0 00-1.393.033c-14.938.733-27.57 10.27-32.212 24.315-4.013 12.142-1.496 24.752 6.888 34.56 2.321 2.715 8.254 7.52 8.708 7.052.136-.14.553-1.04.932-2.007l.691-1.766-1.382-1.042c-2.553-1.92-5.067-5.805-6.405-9.893-.96-2.931.012-5.452 2.61-6.778 3.396-1.732 6.033-.247 8.413 4.738 1.242 2.603 2.905 4.134 5.385 4.957 4.818 1.6 10.408-2.137 10.408-6.953 0-2.247-1.377-4.606-5.33-9.103-6.6-7.508-8.237-10.793-7.919-15.893.254-4.073 1.782-7.632 4.563-10.605 2.526-2.7 5.066-4.008 9.53-4.925l3.126-.647 1.02-2.402c.56-1.323.945-2.478.856-2.566-.52-.521-5.048-1.064-8.49-1.075h.001z" fill="#005197"/></svg>
